X:26
T:Rodney's Glory
Z: id:dc-setdance-27
M:C|
L:1/8
K:A Dorian
ed|c2Bc ABcA|BGEF G2cd|e=fed cde^f|gfge d=fed|!
c2Bc ABcA|BGEF G2ed|c2BA GABG|A2AG A2:|!
cd|eaab aged|e=fed c3A|g2fg agec|dcAF G3B|!
AGAB cBcd|edeg a3b|aged cdef|gfge d=f|]!